X:601
T: SCHOENSTER SCHATZ MEIN AUGENTROST
N: E0560
O: Europa, Mitteleuropa, Deutschland
R: Liebes - Lied
M: 3/4
L: 1/16
K: G
D2 | D2EFG4B4 | A2A2G2
A2B2c2 | d3ed2B2c2d2 | B4z6
D2 | G2B2d4e2d2 | c2B2c6
d2 | B2A2B2d2c2B2 | A2G2A2
D2G2B2 | d2e2d4c2d2 | B4z6

